icons/logo-github-alt.svg

<svg width="24" height="24" viewBox="0 0 24 24" fill="none" xmlns="http://www.w3.org/2000/svg">
<path d="M10 15H8.36364C7.78498 15 7.23003 15.2458 6.82086 15.6834C6.41169 16.121 6.18182 16.7145 6.18182 17.3333V18.1111C6.18182 18.7299 5.95195 19.879 5.54278 20.3166C5.13361 20.7542 4.57865 21 4 21" stroke="#1E293B" stroke-width="2" stroke-linecap="round" stroke-linejoin="round"/>
<path d="M8 22C8.57865 22 9.13361 21.7542 9.54278 21.3166C9.95195 20.879 10 20.2855 10 19.6667V15" stroke="#1E293B" stroke-width="2" stroke-linecap="round" stroke-linejoin="round"/>
<path d="M14 15H15.6364C16.215 15 16.77 15.2458 17.1791 15.6834C17.5883 16.121 17.8182 16.7145 17.8182 17.3333V18.1111C17.8182 18.7299 18.0481 19.879 18.4572 20.3166C18.8664 20.7542 19.4213 21 20 21" stroke="#1E293B" stroke-width="2" stroke-linecap="round" stroke-linejoin="round"/>
<path d="M16 22C15.4213 22 14.8664 21.7542 14.4572 21.3166C14.0481 20.879 14 20.2855 14 19.6667V15" stroke="#1E293B" stroke-width="2" stroke-linecap="round" stroke-linejoin="round"/>
<path d="M5.50352 5.05835C5.44483 5.78365 5.55555 6.5124 5.82753 7.19098C5.28726 7.94253 4.99848 8.83554 5.00001 9.75V10.5C5.00001 11.6935 5.49167 12.8381 6.36684 13.682C7.24201 14.5259 8.42899 15 9.66667 15H14.3333C15.571 15 16.758 14.5259 17.6332 13.682C18.5083 12.8381 19 11.6935 19 10.5V9.75C19.0015 8.83554 18.7127 7.94253 18.1725 7.19098C18.4445 6.5124 18.5552 5.78365 18.4965 5.05835C18.4378 4.33306 18.2112 3.62968 17.8333 3C16.9843 2.99953 16.1488 3.20544 15.4041 3.59868C14.6594 3.99192 14.0295 4.55981 13.5726 5.24989H10.4274C9.9705 4.55981 9.3406 3.99192 8.5959 3.59868C7.8512 3.20544 7.01572 2.99953 6.16667 3C5.78882 3.62968 5.56221 4.33306 5.50352 5.05835Z" stroke="#1E293B" stroke-width="2" stroke-linecap="round" stroke-linejoin="round"/>
</svg>

<svg
  width="24"
  height="24"
  viewBox="0 0 24 24"
  xmlns="http://www.w3.org/2000/svg"
  fill="none"
  stroke="currentColor"
  stroke-width="2"
  stroke-linecap="round"
  stroke-linejoin="round"
>
  <path d="M10 15H8.364c-.579 0-1.134.246-1.543.683a2.418 2.418 0 0 0-.64 1.65v.778c0 .619-.229 1.768-.638 2.206-.41.437-.964.683-1.543.683" />
  <path d="M8 22c.579 0 1.134-.246 1.543-.683.409-.438.457-1.032.457-1.65V15" />
  <path d="M14 15h1.636c.579 0 1.134.246 1.543.683.41.438.64 1.032.64 1.65v.778c0 .619.23 1.768.638 2.206.41.437.964.683 1.543.683" />
  <path d="M16 22a2.112 2.112 0 0 1-1.543-.683c-.409-.438-.457-1.032-.457-1.65V15" />
  <path d="M5.504 5.058a4.707 4.707 0 0 0 .324 2.133A4.369 4.369 0 0 0 5 9.75v.75a4.42 4.42 0 0 0 1.367 3.182A4.756 4.756 0 0 0 9.667 15h4.666a4.756 4.756 0 0 0 3.3-1.318A4.42 4.42 0 0 0 19 10.5v-.75a4.37 4.37 0 0 0-.828-2.559A4.707 4.707 0 0 0 17.834 3a5.2 5.2 0 0 0-2.429.599 4.983 4.983 0 0 0-1.831 1.65h-3.146A4.983 4.983 0 0 0 8.596 3.6 5.2 5.2 0 0 0 6.166 3a4.742 4.742 0 0 0-.662 2.058z" />
</svg>
